www/assets/icons/build.svg

<svg width="24" height="24" viewBox="0 0 24 24" xmlns="http://www.w3.org/2000/svg" fill='currentColor'><path d="M22.7279 18.9501L13.6279 9.85009C14.5279 7.55009 14.0279 4.85009 12.1279 2.95009C10.1279 0.950085 7.12789 0.550085 4.72789 1.65009L9.02789 5.95009L6.02789 8.95009L1.62789 4.65009C0.427893 7.05009 0.927894 10.0501 2.92789 12.0501C4.82789 13.9501 7.52789 14.4501 9.82789 13.5501L18.9279 22.6501C19.3279 23.0501 19.9279 23.0501 20.3279 22.6501L22.6279 20.3501C23.1279 19.9501 23.1279 19.2501 22.7279 18.9501Z"/></svg>

<svg xmlns="http://www.w3.org/2000/svg" width="24" height="24" viewBox="0 0 24 24" fill='currentColor'><path d="m22.728 18.95-9.1-9.1c.9-2.3.4-5-1.5-6.9-2-2-5-2.4-7.4-1.3l4.3 4.3-3 3-4.4-4.3c-1.2 2.4-.7 5.4 1.3 7.4 1.9 1.9 4.6 2.4 6.9 1.5l9.1 9.1c.4.4 1 .4 1.4 0l2.3-2.3c.5-.4.5-1.1.1-1.4"/></svg>
